images/finger.svg

<svg width="16" height="16" viewBox="0 0 16 16" fill="none" xmlns="http://www.w3.org/2000/svg">
<path d="M13.3334 6C13.0873 6 12.8565 6.06706 12.6582 6.18391C12.5837 5.51856 12.0179 5 11.3334 5C11.0078 5 10.7087 5.11784 10.4763 5.31413C10.2429 4.92644 9.81806 4.66666 9.33337 4.66666C9.09087 4.66666 8.863 4.73175 8.66672 4.84569V1.33334C8.66669 0.597969 8.06872 0 7.33337 0C6.59803 0 6.00003 0.597969 6.00003 1.33334V10.2546C6.00003 10.4225 5.88934 10.5088 5.84181 10.5381C5.79428 10.5674 5.66634 10.6276 5.51759 10.5527L3.37697 9.48244C3.18197 9.38478 2.96356 9.33334 2.74547 9.33334C1.96681 9.33334 1.33337 9.96681 1.33337 10.7455V11C1.33337 11.0924 1.37178 11.1807 1.43916 11.2438L5.2865 14.8346C6.09181 15.5859 7.14197 16 8.24319 16H10.3333C12.7227 16 14.6667 14.056 14.6667 11.6667V7.33334C14.6667 6.59797 14.0687 6 13.3334 6ZM14 11.6667C14 13.6885 12.3552 15.3333 10.3334 15.3333H8.24322C7.31156 15.3333 6.4229 14.9831 5.74159 14.347L2.00003 10.8552V10.7455C2.00003 10.3343 2.33434 10 2.74547 10C2.86037 10 2.97594 10.0273 3.07881 10.0788L5.21944 11.1491C5.53162 11.3057 5.89553 11.2884 6.19241 11.1055C6.48928 10.9219 6.66669 10.6038 6.66669 10.2546V1.33334C6.66669 0.965844 6.96584 0.666687 7.33334 0.666687C7.70084 0.666687 8 0.965844 8 1.33334V6.33334C8 6.51759 8.14909 6.66669 8.33334 6.66669C8.51759 6.66669 8.66669 6.51759 8.66669 6.33334V6C8.66669 5.6325 8.96584 5.33334 9.33334 5.33334C9.70084 5.33334 10 5.6325 10 6V6.33334C10 6.334 10 6.33466 10 6.33531V6.33563C10.0013 6.51856 10.1501 6.66669 10.3333 6.66669C10.5176 6.66669 10.6667 6.51759 10.6667 6.33334V6.32812C10.6693 5.96322 10.9681 5.66666 11.3333 5.66666C11.7008 5.66666 12 5.96581 12 6.33331V7.33331C12 7.51756 12.1491 7.66666 12.3333 7.66666C12.5176 7.66666 12.6667 7.51756 12.6667 7.33331C12.6667 6.96581 12.9658 6.66666 13.3333 6.66666C13.7008 6.66666 14 6.96581 14 7.33334V11.6667Z" fill="black"/>
</svg>

<svg width="16" height="16" fill="none" xmlns="http://www.w3.org/2000/svg"><path d="M13.333 6c-.246 0-.476.067-.675.184A1.335 1.335 0 0011.333 5c-.325 0-.624.118-.857.314a1.333 1.333 0 00-1.81-.468V1.333C8.667.598 8.07 0 7.334 0 6.598 0 6 .598 6 1.333v8.922c0 .167-.11.254-.158.283a.33.33 0 01-.324.015l-2.141-1.07a1.414 1.414 0 00-2.044 1.263V11c0 .092.039.18.106.244l3.848 3.59A4.32 4.32 0 008.242 16h2.09a4.338 4.338 0 004.334-4.333V7.333c0-.735-.598-1.333-1.334-1.333zM14 11.667a3.67 3.67 0 01-3.667 3.666h-2.09c-.931 0-1.82-.35-2.501-.986L2 10.855v-.11a.746.746 0 011.079-.666l2.14 1.07c.313.157.677.14.973-.043a.994.994 0 00.475-.851V1.333a.668.668 0 011.333 0v5a.333.333 0 10.667 0V6A.668.668 0 0110 6v.335a.334.334 0 00.667-.002v-.005A.668.668 0 0112 6.333v1a.333.333 0 10.667 0 .667.667 0 011.333 0v4.334z" fill="#000"/></svg>
